icons/sub-fields-16.svg

<?xml version="1.0" encoding="UTF-8"?><svg id="icons" xmlns="http://www.w3.org/2000/svg" viewBox="0 0 16 16"><defs><style>.cls-1{fill:none;}.cls-1,.cls-2{stroke-width:0px;}</style></defs><rect class="cls-1" width="16" height="16"/><path class="cls-2" d="M14,5c.55127,0,1-.44824,1-1v-2c0-.55176-.44873-1-1-1H2c-.55127,0-1,.44824-1,1v2c0,.55176.44873,1,1,1h1v9h3v.5c0,.27612.22388.5.5.5h8c.27612,0,.5-.22388.5-.5v-2c0-.27618-.22388-.5-.5-.5H6.5c-.27612,0-.5.22382-.5.5v.5h-2v-4h2v.5c0,.27612.22388.5.5.5h8c.27612,0,.5-.22388.5-.5v-2c0-.27618-.22388-.5-.5-.5H6.5c-.27612,0-.5.22382-.5.5v.5h-2v-3h10ZM14,13v1h-7v-1h7ZM14,8v1h-7v-1h7ZM2,4v-2h12v2H2Z"/></svg>

<svg xmlns="http://www.w3.org/2000/svg" viewBox="0 0 16 16"><path stroke-width="0" fill="none" d="M0 0h16v16H0z"/><path d="M14 5c.551 0 1-.448 1-1V2c0-.552-.449-1-1-1H2c-.551 0-1 .448-1 1v2c0 .552.449 1 1 1h1v9h3v.5a.5.5 0 0 0 .5.5h8a.5.5 0 0 0 .5-.5v-2a.5.5 0 0 0-.5-.5h-8a.5.5 0 0 0-.5.5v.5H4V9h2v.5a.5.5 0 0 0 .5.5h8a.5.5 0 0 0 .5-.5v-2a.5.5 0 0 0-.5-.5h-8a.5.5 0 0 0-.5.5V8H4V5h10zm0 8v1H7v-1h7zm0-5v1H7V8h7zM2 4V2h12v2H2z" stroke-width="0"/></svg>
